X:1
T:Happy to Meet, Sorry to Part
T:Strathspey
C:traditional, from Howie MacDonald "The Ceilidh Trail"
Z:From Howie MacDonald The Ceilidh Trail
Z:transcribed by T. Traub, 6-1-02
R:reel
M:4/4
K:A
L: 1/8
|:d|"A"c>B A>F E<A, C2|"Bm"B,A "E"B>F FB A>F "F#m"E<A, C2|"E"E<F A>B "A"c<A A :|
e|"A" d/c/B/A/ e>A "D" f>A "A"e>A| "Bm"d>B "A"c>A "E"B>A F>e| \
  "A" d/c/B/A/ e>A "D" f>A "A"e<A| "E"E>F A>B "A" c<A A>e|
"D" a/g/f/e/ d>f "A" e>A c2 | "D" (3dfd "A" (3cec "Bm" B>A F>B|\
  "A" (3cBc (3ABc "D"(3def e>A| "E"E>F A>B "A" c<A A |]
